lib/svgs/task-type.svg

<?xml version="1.0" encoding="UTF-8"?>
<svg width="16px" height="16px" viewBox="0 0 16 16" version="1.1" xmlns="http://www.w3.org/2000/svg" xmlns:xlink="http://www.w3.org/1999/xlink">
    <!-- Generator: sketchtool 51.3 (57544) - http://www.bohemiancoding.com/sketch -->
    <title>task-type</title>
    <desc>Created with sketchtool.</desc>
    <defs></defs>
    <g id="Icons" stroke="none" stroke-width="1" fill="none" fill-rule="evenodd">
        <g id="Deprecated" transform="translate(-82.000000, -300.000000)" fill="#000000" fill-rule="nonzero">
            <g id="task-type" transform="translate(82.000000, 300.000000)">
                <path d="M3.88172832,8.51862878 L6.32020692,10.9571074 L10.6813654,6.32763654 C10.9185752,6.09625341 11.2984448,6.10097684 11.529828,6.33818663 C11.7612111,6.57539641 11.7564877,6.95526601 11.5192779,7.18664914 L6.73392048,12.2298991 C6.49879356,12.4592506 6.12295733,12.456914 5.89070021,12.2246569 L3.03320021,9.36715688 C2.79888564,9.13284232 2.79888564,8.75294334 3.03320021,8.51862878 C3.26751478,8.28431421 3.64741375,8.28431421 3.88172832,8.51862878 Z M13.5977082,14.7977082 L13.5977082,6.65439914 C13.5977082,6.32239538 13.8668504,6.05325315 14.1988542,6.05325315 C14.530858,6.05325315 14.8000002,6.32239538 14.8000002,6.65439914 L14.8000002,15.3988542 C14.8000002,15.730858 14.530858,16.0000002 14.1988542,16.0000002 L0.601145995,16.0000002 C0.269142229,16.0000002 0,15.730858 0,15.3988542 L0,1.80114599 C0,1.46914222 0.269142229,1.2 0.601145995,1.2 L9.11809686,1.2 C9.45010062,1.2 9.71924285,1.46914222 9.71924285,1.80114599 C9.71924285,2.13314976 9.45010062,2.40229198 9.11809686,2.40229198 L1.20229199,2.40229198 L1.20229199,14.7977082 L13.5977082,14.7977082 Z M11.7602901,4.96218916 C11.7024779,4.91825204 11.673728,4.84382125 11.685603,4.76971835 L12.1421605,3.0017571 L10.8565447,2.09152154 C10.8052949,2.03905931 10.7868575,1.96102174 10.8090449,1.88986984 C10.8309198,1.81839006 10.8896695,1.7665836 10.9602942,1.75576327 L12.6605954,1.72722105 L13.1315331,0.100579931 C13.1946578,-0.0335266435 13.4046568,-0.0335266435 13.4677814,0.100579931 L13.9387192,1.72722105 L15.6393329,1.75576327 C15.7099576,1.7665836 15.7683948,1.81839006 15.7905821,1.88986984 C15.812457,1.96102174 15.7943321,2.03905931 15.7430824,2.09152154 L14.4574665,3.0017571 L14.9137116,4.76971835 C14.9255865,4.84382125 14.8968367,4.91825204 14.8390245,4.96218916 C14.7815248,5.00678205 14.7049627,5.01202827 14.6415255,4.97727205 L13.2996573,3.8369061 L11.9577891,4.97727205 C11.9302892,4.99235494 11.9002894,4.99956849 11.870602,4.99956849 C11.8315397,4.99956849 11.7931024,4.98710871 11.7602901,4.96218916 Z"></path>
            </g>
        </g>
    </g>
</svg>

<svg xmlns="http://www.w3.org/2000/svg" viewBox="0 0 16 16">
    <path d="M3.882 8.519l2.438 2.438 4.361-4.63a.6.6 0 0 1 .838.86L6.734 12.23a.6.6 0 0 1-.843-.005L3.033 9.367a.6.6 0 1 1 .849-.848zm9.716 6.279V6.654a.601.601 0 1 1 1.202 0V15.4c0 .332-.27.601-.601.601H.6A.601.601 0 0 1 0 15.399V1.8C0 1.47.27 1.2.601 1.2h8.517a.601.601 0 1 1 0 1.202H1.202v12.396h12.396zM11.76 4.962a.201.201 0 0 1-.074-.192l.456-1.768-1.285-.91a.203.203 0 0 1-.048-.202.19.19 0 0 1 .151-.134l1.7-.029.472-1.626c.063-.135.273-.135.336 0l.47 1.626 1.701.029c.071.01.13.062.152.134a.204.204 0 0 1-.048.202l-1.286.91.457 1.768a.201.201 0 0 1-.075.192.18.18 0 0 1-.197.015L13.3 3.837l-1.342 1.14a.18.18 0 0 1-.198-.015z"/>
</svg>
